X:2199
T:Se\'an in the Fog
O:ireland
R:reel
H:Also played in Gmix
N:Similar to #303. See also #519
D:Vinnie Kilduff
D:Paul McGrattan: The Frost Is All Over
D:Laurence Nugent
Z:id:hn-reel-313
M:C|
K:Amix
(3Bcd|e2df eABd|~e3c d2BA|Beed eggd|(3Bcd ge dG (3Bcd|
e2df eA (3Bcd|~e3c d2Ba|beed eggd|(3Bcd ge dG (3Bcd||
cA~A2 cA (3Bcd|cA~A2 dG (3Bcd|cA~A2 EAcA|(3Bcd gd BG (3Bcd|
cA~A2 cA (3Bcd|cA~A2 d3d|cA~A2 eA~A2|(3Bcd ge defg||
|:a2c'a bac'a|~a2c'a ~e3f|1 g2bg agbg|~g2bg efge:|2 ~g3b agef|feed ed||
